X:1
T:Title
L:1/4
M:4/4
I:linebreak $
K:C
V:1 treble nm="Voice"
V:1
"Am" e A A A | e A A A/B/ | c c"G" B B | d d"Am" c/B/c/d/ |"Am" e A A A | e A A A/B/ | %6
 c c"G" B/A/ G |"Am" A2 A2 ::"Am" A/B/ c A/B/ c |"G" d G G G |"Am" A/B/ c A/B/ c |"G" d2 d2 | %12
"Am" e2"G" d2 |"Am" c2"G" B2 |"Am" A/B/ c"G" B G |"Am" A2 A2 :| %16
